urcenter/urcenter/img/icons/twitter.svg

<svg width="18" height="18" viewBox="0 0 18 18" fill="none" xmlns="http://www.w3.org/2000/svg">
<path d="M0.354714 14.696C2.02121 15.7535 3.96071 16.3123 5.96321 16.3123C8.89571 16.3123 11.583 15.1858 13.5307 13.1405C15.3945 11.183 16.4197 8.5528 16.3687 5.88355C17.0752 5.27905 17.9062 4.1248 17.9062 2.9998C17.9062 2.56855 17.4382 2.2948 17.0587 2.51455C16.395 2.90455 15.7897 3.00655 15.1672 2.8318C13.896 1.5928 12.0037 1.3318 10.4092 2.1913C9.01571 2.9413 8.24096 4.3138 8.31071 5.8138C5.95646 5.52655 3.78146 4.34605 2.26496 2.51155C2.01596 2.2123 1.54346 2.24755 1.34546 2.58655C0.614964 3.83755 0.622464 5.2873 1.25771 6.45805C0.955464 6.5113 0.768714 6.76555 0.768714 7.0408C0.768714 8.21755 1.29821 9.29905 2.15096 10.037C1.99196 10.19 1.93946 10.4173 2.00696 10.6198C2.38196 11.7463 3.23096 12.6268 4.29221 13.0678C3.13796 13.619 1.86146 13.8028 0.725214 13.6633C0.137214 13.5838 -0.153036 14.3743 0.354714 14.696ZM6.11696 13.2605C6.53771 12.9373 6.31421 12.2638 5.78621 12.2525C4.85621 12.233 4.00946 11.7748 3.48221 11.054C3.73646 11.0375 3.99971 10.9985 4.25021 10.931C4.82096 10.7765 4.79396 9.95305 4.21421 9.8368C3.16196 9.6253 2.33621 8.8588 2.02646 7.8718C2.30921 7.94155 2.59721 7.98055 2.88446 7.9858C3.45371 7.9888 3.66896 7.25905 3.20471 6.9538C2.15846 6.26455 1.71221 5.0473 2.00771 3.9028C3.83471 5.7538 6.31346 6.86905 8.93546 6.99505C9.31121 7.0183 9.59321 6.66505 9.51071 6.3073C9.15446 4.76305 10.017 3.6808 10.9432 3.18205C11.8597 2.68705 13.3312 2.53255 14.4592 3.71605C14.7945 4.0693 15.9255 4.0828 16.5007 3.94855C16.2427 4.43455 15.846 4.8958 15.4747 5.1553C15.3165 5.2663 15.2257 5.4508 15.2355 5.64355C15.3562 8.1073 14.4382 10.5568 12.717 12.3635C10.983 14.1838 8.58521 15.1865 5.96396 15.1865C4.92146 15.1865 3.89921 15.017 2.93321 14.69C4.08821 14.4665 5.18546 13.9775 6.11696 13.2605Z" fill="#273895"/>
<path d="M6.11696 13.2605C6.53771 12.9373 6.31421 12.2638 5.78621 12.2525C4.85621 12.233 4.00946 11.7748 3.48221 11.054C3.73646 11.0375 3.99971 10.9985 4.25021 10.931C4.82096 10.7765 4.79396 9.95305 4.21421 9.8368C3.16196 9.6253 2.33621 8.8588 2.02646 7.8718C2.30921 7.94155 2.59721 7.98055 2.88446 7.9858C3.45371 7.9888 3.66896 7.25905 3.20471 6.9538C2.15846 6.26455 1.71221 5.0473 2.00771 3.9028C3.83471 5.7538 6.31346 6.86905 8.93546 6.99505C9.31121 7.0183 9.59321 6.66505 9.51071 6.3073C9.15446 4.76305 10.017 3.6808 10.9432 3.18205C11.8597 2.68705 13.3312 2.53255 14.4592 3.71605C14.7945 4.0693 15.9255 4.0828 16.5007 3.94855C16.2427 4.43455 15.846 4.8958 15.4747 5.1553C15.3165 5.2663 15.2257 5.4508 15.2355 5.64355C15.3562 8.1073 14.4382 10.5568 12.717 12.3635C10.983 14.1838 8.58521 15.1865 5.96396 15.1865C4.92146 15.1865 3.89921 15.017 2.93321 14.69C4.08821 14.4665 5.18546 13.9775 6.11696 13.2605Z" fill="#273895"/>
</svg>

<svg width="18" height="18" fill="none" xmlns="http://www.w3.org/2000/svg"><path d="M.355 14.696a10.446 10.446 0 005.608 1.616c2.933 0 5.62-1.126 7.568-3.172a10.292 10.292 0 002.838-7.256c.706-.605 1.537-1.76 1.537-2.884a.563.563 0 00-.847-.485c-.664.39-1.27.492-1.892.317-1.271-1.24-3.163-1.5-4.758-.64-1.393.75-2.168 2.122-2.098 3.622a9.32 9.32 0 01-6.046-3.302.563.563 0 00-.92.075c-.73 1.25-.723 2.7-.087 3.871a.585.585 0 00-.49.583c0 1.177.53 2.258 1.383 2.996a.562.562 0 00-.144.583 4.038 4.038 0 002.285 2.448 6.55 6.55 0 01-3.567.595c-.588-.08-.878.711-.37 1.033zm5.762-1.435c.42-.324.197-.997-.33-1.008a2.934 2.934 0 01-2.305-1.199c.254-.017.518-.056.768-.123.571-.154.544-.978-.036-1.094a2.887 2.887 0 01-2.188-1.965c.283.07.571.109.858.114.57.003.785-.727.32-1.032-1.046-.69-1.492-1.907-1.196-3.051a10.458 10.458 0 006.927 3.092.561.561 0 00.576-.688c-.357-1.544.506-2.626 1.432-3.125.917-.495 2.388-.65 3.516.534.335.353 1.466.367 2.042.233-.258.486-.655.947-1.026 1.206a.562.562 0 00-.24.489 9.146 9.146 0 01-2.518 6.72c-1.734 1.82-4.132 2.822-6.753 2.822a9.446 9.446 0 01-3.03-.496 7.596 7.596 0 003.183-1.43z" fill="#273895"/><path d="M6.117 13.26c.42-.323.197-.996-.33-1.008a2.934 2.934 0 01-2.305-1.198c.254-.017.518-.056.768-.123.571-.154.544-.978-.036-1.094a2.887 2.887 0 01-2.188-1.965c.283.07.571.109.858.114.57.003.785-.727.32-1.032-1.046-.69-1.492-1.907-1.196-3.051a10.458 10.458 0 006.927 3.092.561.561 0 00.576-.688c-.357-1.544.506-2.626 1.432-3.125.917-.495 2.388-.65 3.516.534.335.353 1.466.367 2.042.233-.258.486-.655.947-1.026 1.206a.562.562 0 00-.24.489 9.146 9.146 0 01-2.518 6.72c-1.734 1.82-4.132 2.822-6.753 2.822a9.446 9.446 0 01-3.03-.496 7.596 7.596 0 003.183-1.43z" fill="#273895"/></svg>
